**kern	**kern
*part1	*part1
*staff2	*staff1
*I"Piano	*
*I'Pno.	*
*clefF4	*clefG2
*k[]	*k[]
*M4/4	*M4/4
*	*^
2r	2gg	2f 2b 2dd
=1	=1	=1
1r	2a#X 2cc#X 2ff#X	2e
.	2an 2ccn 2ffn	2e-X
=2	=2	=2
1r	2g#X 2b 2ee	2d
.	2gn 2b-X 2ee-X	2d-X
=3	=3	=3
1r	2f#X 2a 2dd	2c
.	2a-X 2dd-X	2B 2f#
=	=	=
2r	2cc	2c 2e 2g
=4||	=4||	=4||
2r	2b 2dd 2gg	2f
=5	=5	=5
1r	2cc 2ee-X 2aa-X	2g-X
.	2cc#X 2een 2aan	2gn
=6	=6	=6
1r	2dd 2ff 2bb-X	2a-X
.	2dd#X 2ff#X 2bbn	2an
=7	=7	=7
1r	2ee 2gg 2ccc	2b-X
.	2ff 2aa-X 2ddd	2bn
!!linebreak:original
=	=	=
2r	2ee 2gg 2ccc	2cc
=8||	=8||	=8||
2GG	2b 2dd [2gg	2f
=9	=9	=9
2AA	[2a 2cc#X 2gg]	2e
2BB	2a] [2b 2ff#X	2d#X
=10	=10	=10
2C#X	2g#X 2b] 2ee#X	[2c#X
2E-X	2gn 2b-X [2ee-X	2d-X]
=11	=11	=11
2F	[2f 2a 2ee-]	2c
2G	2f] 2g 2dd	2B
=12	=12	=12
2C	2e-X 2g 2cc	2c
*	*v	*v
==	==
*-	*-
!!!system-decoration: {(s1,s2)}
